src/pos-icons/do-not-disturb-off.svg

<svg height="24" viewBox="0 0 24 24" width="24" xmlns="http://www.w3.org/2000/svg"><path d="m17 11v2h-1.46l4.68 4.68c1.12-1.61 1.78-3.57 1.78-5.68a10 10 0 0 0 -10-10c-2.11 0-4.07.66-5.68 1.78l7.22 7.22zm-14.73-8.73-1.27 1.27 2.78 2.78c-1.12 1.61-1.78 3.57-1.78 5.68a10 10 0 0 0 10 10c2.11 0 4.07-.66 5.68-1.78l2.78 2.78 1.27-1.27zm4.73 10.73v-2h1.46l2 2z"/></svg>

<?xml version="1.0" encoding="UTF-8"?><!DOCTYPE svg PUBLIC "-//W3C//DTD SVG 1.1//EN" "http://www.w3.org/Graphics/SVG/1.1/DTD/svg11.dtd"><svg xmlns="http://www.w3.org/2000/svg" xmlns:xlink="http://www.w3.org/1999/xlink" version="1.1" id="mdi-do-not-disturb-off" width="24" height="24" viewBox="0 0 24 24"><path d="M17,11V13H15.54L20.22,17.68C21.34,16.07 22,14.11 22,12A10,10 0 0,0 12,2C9.89,2 7.93,2.66 6.32,3.78L13.54,11H17M2.27,2.27L1,3.54L3.78,6.32C2.66,7.93 2,9.89 2,12A10,10 0 0,0 12,22C14.11,22 16.07,21.34 17.68,20.22L20.46,23L21.73,21.73L2.27,2.27M7,13V11H8.46L10.46,13H7Z" /></svg>
